X: 98
T:Harimon
C:Traditional (Armenian) 1950
D: Israeli Folk Dance Souvenir (Tikva-148)
O:Israel
F: http://www.youtube.com/watch?v=hiYxHyqUf7s
F: http://www.youtube.com/watch?v=EHXnTRcworQ
L:1/8
M:3/4
Q:1/4=120
K:Dm
|:"Dm"d2 dd d2 | _ed"Bb"cB "F"c2| "Dm"A2 "Gm"GF "Dm"F2| FEFG D2     :|\
|:D2 EF "Gm"G2 | "Gm"GFGA "Dm"F2| "Dm"FEFG "C"E2      |"Dm"EDEF D2  :|



